X: 38272
T: St. Christopher & The Magpie
R: hornpipe
M: 4/4
K: Eminor
|:EB~B2 B^cdB|AGFE ~D2D>E|F/E/DFA GFEF|GEED E2E2|
EB~B2 B^cdB|AGFE ~D2D>E|F/E/DFA GFEF|1 GEED E2E2:|2 GEED E2EF||
|:G2GB ~A2GA|BedB A2GA|Beef g/f/efa|gedf e2ef|
[1 g2ge f2fe|dBAG F2GA|BedB AcBA|GEED E2EF:|
[2 gafg edBe|dBAG F2GA|BedB AcBA|GEED E2E2||

